X: 49
T:New Five Cents
M:C|
L:1/8
K:D
R:Reel
S:https://tunearch.org/wiki/New_Five_Cents_(1)
A,2|:"D"A,2f2 f(gfe)|d(fed) "Bm"B(cdB)|"D"A2(FD) (GD)(FD)|"A"e3f e2[D2A,2]|
"D"[D2A,2]f2 f(gfe)|dfed "Bm"B(cdB)|"D"A2 (FD) "A"(ED) C2|1"D"D3(E D2)A,2:|2"D"D3(E D2)(dB)|]
|:"D"A2 F2 F2(dB)|A(DFG F2)(dB)|A2(FD) (GD)(FD)|"A"E3F E2dB|
"D"A(FDF) A(Fdc)|"G"B-[G2B2](A BcdB)|"D"A2(FD) "A"(ED)C2|1"D"D3(E D2)(dB):|2"D"D3(E D4)|]

